packages/symbols/svgs/outline/turn-down-right-outline.svg

<svg width="24" height="24" viewBox="0 0 24 24" fill="none" xmlns="http://www.w3.org/2000/svg">
<g clip-path="url(#clip0_1150_5549)">
<path fill-rule="evenodd" clip-rule="evenodd" d="M0 2C0 1.44772 0.447715 1 1 1H16C16.5523 1 17 1.44772 17 2C17 2.55228 16.5523 3 16 3H2V15H21.5C22.0523 15 22.5 15.4477 22.5 16C22.5 16.5523 22.0523 17 21.5 17H1C0.447715 17 0 16.5523 0 16V2Z" fill="black"/>
<path fill-rule="evenodd" clip-rule="evenodd" d="M16.2929 10.2929C16.6834 9.90237 17.3166 9.90237 17.7071 10.2929L22.7071 15.2929C23.0976 15.6834 23.0976 16.3166 22.7071 16.7071L17.7071 21.7071C17.3166 22.0976 16.6834 22.0976 16.2929 21.7071C15.9024 21.3166 15.9024 20.6834 16.2929 20.2929L20.5858 16L16.2929 11.7071C15.9024 11.3166 15.9024 10.6834 16.2929 10.2929Z" fill="black"/>
</g>
<defs>
<clipPath id="clip0_1150_5549">
<rect width="24" height="24" fill="white"/>
</clipPath>
</defs>
</svg>

<svg width="24" height="24" viewBox="0 0 24 24" xmlns="http://www.w3.org/2000/svg"><g clip-path="url(#a)" fill-rule="evenodd" clip-rule="evenodd"><path d="M0 2a1 1 0 0 1 1-1h15a1 1 0 1 1 0 2H2v12h19.5a1 1 0 1 1 0 2H1a1 1 0 0 1-1-1V2Z"/><path d="M16.293 10.293a1 1 0 0 1 1.414 0l5 5a1 1 0 0 1 0 1.414l-5 5a1 1 0 0 1-1.414-1.414L20.586 16l-4.293-4.293a1 1 0 0 1 0-1.414Z"/></g><defs><clipPath id="a"><path fill="#fff" d="M0 0h24v24H0z"/></clipPath></defs></svg>
